src/assets/why_chose_us_2.svg

<svg width="60" height="60" viewBox="0 0 60 60" fill="none" xmlns="http://www.w3.org/2000/svg">
<g clip-path="url(#clip0_6183_597)">
<path d="M24.6492 53.1895L24.4729 54.0506L24.6428 53.1886C24.1667 53.0948 23.7043 53.4047 23.6105 53.8808C23.5167 54.3573 23.8266 54.8192 24.3031 54.913C24.3045 54.9135 24.3177 54.9158 24.3191 54.9162C24.375 54.9268 24.4304 54.9322 24.4853 54.9322C24.8986 54.9322 25.2671 54.6393 25.3473 54.2181C25.4388 53.7411 25.1262 53.2806 24.6492 53.1895Z" fill="#FF5500"/>
<path d="M31.3697 53.4717L31.4572 54.346L31.367 53.4721C30.8841 53.5216 30.533 53.9532 30.5828 54.4362C30.6291 54.8884 31.0109 55.2254 31.4558 55.2254C31.486 55.2254 31.5167 55.2235 31.5469 55.2208L31.5712 55.218C32.0518 55.1617 32.3928 54.7282 32.3393 54.2476C32.2853 53.7674 31.8504 53.4213 31.3697 53.4717Z" fill="#FF5500"/>
<path d="M28.0067 53.5834C28.0067 53.5834 27.9943 53.5829 27.9938 53.5829C27.5095 53.561 27.1049 53.9373 27.0829 54.422C27.0614 54.9068 27.4422 55.3174 27.927 55.3394C27.9407 55.3403 27.954 55.3403 27.9678 55.3403C28.4347 55.3403 28.8238 54.9727 28.8448 54.5012C28.8668 54.0164 28.4919 53.6054 28.0067 53.5834Z" fill="#FF5500"/>
<path d="M21.4039 52.296L21.3929 52.2919C20.9361 52.128 20.438 52.367 20.2741 52.8238C20.1098 53.2807 20.3524 53.7861 20.8093 53.9504C20.9077 53.9856 21.0079 54.0021 21.1064 54.0021C21.4666 54.0021 21.8049 53.7792 21.9335 53.4203C22.0979 52.9635 21.8607 52.4599 21.4039 52.296Z" fill="#FF5500"/>
<path d="M34.6902 52.8567L34.9067 53.7086L34.6874 52.8577C34.2173 52.9785 33.9344 53.4578 34.0552 53.9279C34.1573 54.3243 34.5144 54.588 34.9058 54.588C34.9786 54.588 35.0523 54.5788 35.126 54.5596C35.1296 54.5587 35.1452 54.5546 35.1493 54.5537C35.6158 54.4264 35.8886 53.9471 35.7641 53.4798C35.6396 53.0128 35.1585 52.735 34.6902 52.8567Z" fill="#FF5500"/>
<path d="M37.8669 51.7485L38.2153 52.5551L37.8642 51.7495C37.4192 51.9435 37.2155 52.4613 37.4091 52.9062C37.5533 53.2372 37.8765 53.4345 38.2157 53.4345C38.3325 53.4345 38.4519 53.4107 38.5659 53.3612C38.5696 53.3594 38.5838 53.3535 38.5874 53.3516C39.0283 53.1525 39.2228 52.6361 39.026 52.1944C38.8291 51.7522 38.31 51.554 37.8669 51.7485Z" fill="#FF5500"/>
<path d="M18.0465 11.6829C18.1875 11.6829 18.3308 11.649 18.4631 11.5785C18.8916 11.3501 19.0531 10.8177 18.8247 10.3892C18.5963 9.96123 18.0644 9.79873 17.6359 10.0276L17.6254 10.0331C17.1974 10.2615 17.0404 10.7912 17.2688 11.2196C17.4263 11.5153 17.732 11.6829 18.0465 11.6829Z" fill="#FF5500"/>
<path d="M7.88093 21.5002C8.01139 21.5684 8.15101 21.6009 8.2888 21.6009C8.60511 21.6009 8.9109 21.4297 9.06791 21.1299L9.08347 21.0992C9.29771 20.6634 9.11826 20.1365 8.68247 19.9227C8.24989 19.7094 7.72712 19.8852 7.51014 20.315C7.28584 20.7444 7.45155 21.275 7.88093 21.5002Z" fill="#FF5500"/>
<path d="M6.64443 24.8068C6.73782 24.8384 6.83257 24.8535 6.92641 24.8535C7.29262 24.8535 7.63457 24.6224 7.75863 24.2561L7.77007 24.2214C7.91289 23.7576 7.65243 23.2655 7.18825 23.1232C6.7282 22.9813 6.23977 23.2367 6.09283 23.6945C5.93856 24.1536 6.1853 24.6517 6.64443 24.8068Z" fill="#FF5500"/>
<path d="M9.61577 18.4258C9.77187 18.5393 9.95268 18.5942 10.1321 18.5942C10.4036 18.5942 10.6718 18.4683 10.8435 18.2321L10.8549 18.2166C11.1369 17.822 11.0449 17.2745 10.6512 16.9925C10.2571 16.7101 9.70778 16.8007 9.42488 17.1944L10.133 17.7153L9.42213 17.198C9.13649 17.5908 9.22347 18.1406 9.61577 18.4258Z" fill="#FF5500"/>
<path d="M15.0628 13.5814C15.2473 13.5814 15.4331 13.5232 15.592 13.4024C15.9838 13.1158 16.0685 12.566 15.7819 12.1742C15.4949 11.7824 14.9451 11.6977 14.5537 11.9842L14.5318 12.0002C14.1454 12.2937 14.0685 12.8462 14.3619 13.233C14.535 13.461 14.7973 13.5814 15.0628 13.5814Z" fill="#FF5500"/>
<path d="M5.85904 38.1354C5.97532 38.513 6.3223 38.7552 6.69767 38.7552C6.78327 38.7552 6.8707 38.7424 6.95676 38.7158C7.41818 38.5744 7.67865 38.0855 7.54041 37.6232C7.40811 37.1617 6.92975 36.8907 6.46421 37.0175C5.99591 37.1453 5.71988 37.6287 5.8476 38.0969C5.85035 38.1061 5.8563 38.1262 5.85904 38.1354Z" fill="#FF5500"/>
<path d="M12.4103 15.8973C12.6387 15.8973 12.8671 15.8089 13.0397 15.6331C13.3826 15.2898 13.3826 14.7332 13.0397 14.3903C12.6964 14.047 12.1397 14.047 11.7964 14.3903L11.7818 14.405C11.4421 14.7515 11.449 15.3072 11.7955 15.6469C11.9662 15.8144 12.1883 15.8973 12.4103 15.8973Z" fill="#FF5500"/>
<path d="M6.82888 34.3047C6.76708 33.8273 6.33083 33.4885 5.85292 33.5453C5.37136 33.6029 5.02712 34.0401 5.08434 34.5221L5.08938 34.5574C5.15346 34.9941 5.52837 35.3072 5.95729 35.3072C5.99941 35.3072 6.04244 35.304 6.08593 35.2976C6.56429 35.228 6.89617 34.7831 6.82888 34.3047Z" fill="#FF5500"/>
<path d="M5.72767 31.7868C5.73682 31.7868 5.74552 31.7873 5.75422 31.7873C6.22755 31.7873 6.61847 31.4106 6.63221 30.934L6.63312 30.8965C6.63312 30.4108 6.23945 30.0176 5.75422 30.0176C5.27219 30.0176 4.88126 30.4048 4.87531 30.885C4.8625 31.3694 5.24381 31.7726 5.72767 31.7868Z" fill="#FF5500"/>
<path d="M5.91949 28.2618C5.97213 28.271 6.02386 28.2755 6.07558 28.2755C6.49306 28.2755 6.86339 27.9766 6.93984 27.5514C6.94213 27.5385 6.94396 27.5257 6.94579 27.5129C7.01674 27.0327 6.68486 26.5859 6.20421 26.5154C5.72951 26.4449 5.28503 26.7713 5.20858 27.2446C5.12527 27.7216 5.44295 28.1762 5.91949 28.2618Z" fill="#FF5500"/>
<path d="M47.3812 18.7024C47.5515 18.9496 47.8253 19.0819 48.1045 19.0819C48.2762 19.0819 48.4501 19.0315 48.6021 18.9267C49.0017 18.652 49.1029 18.1045 48.8282 17.7045L48.0976 18.1933L48.8255 17.7003C48.5527 17.2984 48.0061 17.1936 47.6046 17.466C47.2027 17.7383 47.0979 18.2849 47.3703 18.6868L47.3812 18.7024Z" fill="#FF5500"/>
<path d="M51.8666 27.5466C51.3841 27.6006 51.0371 28.0359 51.0916 28.5184L51.0961 28.5564C51.1589 28.9945 51.5351 29.3108 51.9654 29.3108C52.0066 29.3108 52.0487 29.3081 52.0909 29.3021C52.5674 29.2339 52.8997 28.7949 52.8379 28.3188C52.7825 27.8377 52.3458 27.4926 51.8666 27.5466Z" fill="#FF5500"/>
<path d="M50.3836 25.0669L50.3872 25.0783C50.4998 25.4615 50.85 25.7096 51.23 25.7096C51.3119 25.7096 51.3952 25.6981 51.4781 25.6734C51.9441 25.5365 52.2105 25.0481 52.0736 24.5821L52.07 24.5707C51.9331 24.1047 51.4447 23.8382 50.9787 23.9756C50.5131 24.1124 50.2467 24.6009 50.3836 25.0669Z" fill="#FF5500"/>
<path d="M49.1429 21.78C49.2963 22.0918 49.6099 22.2735 49.9358 22.2735C50.0653 22.2735 50.1972 22.2447 50.3212 22.1833C50.7565 21.9691 50.9374 21.4454 50.7227 21.0096L49.9262 21.3809L50.7218 21.0078C50.5158 20.5683 49.9925 20.3793 49.5531 20.5853C49.1136 20.7913 48.9241 21.3145 49.1301 21.7539L49.1429 21.78Z" fill="#FF5500"/>
<path d="M45.1659 15.9581C45.338 16.1338 45.5656 16.2217 45.7935 16.2217C46.0155 16.2217 46.2375 16.1384 46.4088 15.9704C46.753 15.6335 46.7608 15.0828 46.4289 14.7358C46.0998 14.3811 45.545 14.3595 45.1888 14.6882C44.8322 15.0174 44.8102 15.5735 45.1394 15.9301L45.1659 15.9581Z" fill="#FF5500"/>
<path d="M52.1511 31.2171C51.6682 31.2047 51.264 31.5833 51.247 32.0662C51.2251 32.5474 51.5945 32.957 52.076 32.9841C52.093 32.985 52.109 32.9854 52.1259 32.9854C52.5887 32.9854 52.9765 32.6233 53.0025 32.155L53.0039 32.1189C53.0177 31.6341 52.6359 31.2313 52.1511 31.2171Z" fill="#FF5500"/>
<path d="M39.5425 11.6419L39.5636 11.6533C39.6945 11.7229 39.835 11.7559 39.9733 11.7559C40.2859 11.7559 40.5885 11.5874 40.7473 11.2922C40.9762 10.866 40.8151 10.3331 40.3903 10.1024L39.965 10.8715L40.3875 10.1006C39.9618 9.86713 39.4276 10.0232 39.1941 10.449C38.9611 10.8742 39.1168 11.4089 39.5425 11.6419Z" fill="#FF5500"/>
<path d="M42.5157 13.5705L42.5295 13.581C42.6883 13.7014 42.8746 13.7595 43.06 13.7595C43.3255 13.7595 43.5878 13.6396 43.7608 13.4116C44.0543 13.0248 43.9783 12.4737 43.5919 12.1802L43.586 12.1761C43.201 11.8804 42.6494 11.9527 42.3537 12.3377C42.058 12.7227 42.1307 13.2747 42.5157 13.5705Z" fill="#FF5500"/>
<path d="M59.4574 44.5229L55.3316 40.3898C54.9805 40.0382 54.5141 39.8446 54.0174 39.8446C53.5212 39.8446 53.0543 40.0382 52.7036 40.3898L52.6079 40.4855L52.3369 40.2145C52.0023 39.8789 51.7432 39.4885 51.5674 39.0632C51.5519 39.0069 51.5313 38.952 51.5047 38.9002C51.3701 38.5221 51.3001 38.1197 51.3001 37.7064V36.5373C51.3802 36.5794 51.4677 36.61 51.5615 36.6261C51.6118 36.6348 51.6617 36.6389 51.7112 36.6389C52.1282 36.6389 52.4972 36.3413 52.5745 35.9184C52.6684 35.4432 52.3603 34.9813 51.8847 34.8861C51.6755 34.8445 51.4686 34.8806 51.2946 34.9749C51.2406 33.7261 50.7302 32.5598 49.8421 31.6699L45.8395 27.6603C44.9413 26.7608 43.747 26.2655 42.4767 26.2655C41.4935 26.2655 40.5569 26.5635 39.7668 27.1151L39.342 26.688V16.6356C39.342 15.4239 38.9021 14.2547 38.1037 13.3442C37.5356 12.697 37.223 11.8657 37.223 11.0032V10.2667H37.2834C38.3079 10.2667 39.1415 9.43312 39.1415 8.40819V2.56164C39.1415 1.53671 38.3079 0.703125 37.2834 0.703125H20.8657C19.8413 0.703125 19.0077 1.53671 19.0077 2.56164V8.40819C19.0077 9.43312 19.8413 10.2667 20.8657 10.2667H21.0012V10.6521C21.0012 11.5997 20.6327 12.4905 19.964 13.1602L18.192 14.9354C17.2517 15.8775 16.734 17.1295 16.734 18.4616V24.1319C16.734 24.9023 16.9189 25.6297 17.2444 26.2742C16.0789 26.3415 14.9926 26.8272 14.1604 27.6603L10.1578 31.6699C9.21751 32.6119 8.69978 33.8644 8.69978 35.196V37.7064C8.69978 38.654 8.33174 39.5448 7.66295 40.2145L7.39516 40.4827C7.39379 40.4836 7.39287 40.4845 7.39195 40.4855L7.29674 40.3898C6.94564 40.0382 6.47918 39.8446 5.9825 39.8446C5.48629 39.8446 5.01937 40.0382 4.66872 40.3898L0.542449 44.5229C-0.180816 45.2476 -0.180816 46.4268 0.542449 47.1514L1.95556 48.5664C2.29843 48.9101 2.85507 48.9106 3.19839 48.5677C3.54171 48.2244 3.54263 47.6682 3.1993 47.3244L1.78665 45.909C1.74682 45.8692 1.74682 45.8047 1.78665 45.7648L5.91292 41.6317C5.95138 41.5933 6.01409 41.5928 6.05254 41.6317L6.76986 42.3504H6.77031L16.5651 52.1621L17.6623 53.2616C17.7021 53.3014 17.7021 53.366 17.6623 53.4058L13.5365 57.539C13.4976 57.5779 13.4349 57.5779 13.3964 57.539L5.6877 49.817C5.34484 49.4732 4.7882 49.4727 4.44488 49.8156C4.1011 50.1589 4.10064 50.7151 4.4435 51.0589L12.1527 58.7809C12.5033 59.1324 12.9703 59.3261 13.4669 59.3261C13.9631 59.3261 14.4296 59.1324 14.7807 58.7809L18.9065 54.6477C19.6298 53.9235 19.6298 52.7444 18.9065 52.0197L18.8617 51.9749L19.3821 51.4535C19.99 50.8442 20.7975 50.478 21.6558 50.4226C22.8639 50.3443 24.0005 49.8289 24.8561 48.9715L28.6463 45.173C29.7395 44.8859 30.5905 43.9956 30.8216 42.8805C31.2112 43.0659 31.6465 43.1702 32.1061 43.1702C33.7591 43.1702 35.104 41.824 35.104 40.1687V38.0818C35.4821 38.2543 35.9019 38.3514 36.3441 38.3514C37.9971 38.3514 39.3415 37.0051 39.3415 35.3498V29.1801L42.0451 31.8969C42.2167 32.0695 42.4424 32.1556 42.6681 32.1556C42.8924 32.1556 43.1167 32.0704 43.2883 31.8997C43.6321 31.5573 43.6335 31.0011 43.2911 30.6568L41.0371 28.3918C41.4733 28.1515 41.965 28.0233 42.4767 28.0233C43.2769 28.0233 44.0295 28.3355 44.5953 28.9027L48.5979 32.9118C49.2068 33.522 49.5423 34.3331 49.5423 35.196V37.7064C49.5423 39.1232 50.093 40.4548 51.0927 41.4564L51.3656 41.7297L50.0907 43.0068L42.3801 50.7307L41.9503 50.2999C41.9457 50.2958 41.9416 50.2912 41.937 50.2871L41.8615 50.2111C40.9515 49.2997 39.7425 48.7517 38.458 48.6684C37.6766 48.6176 36.9415 48.2844 36.3853 47.7277L33.4973 44.8553C33.153 44.5129 32.5964 44.5142 32.254 44.8585C31.912 45.2027 31.9134 45.7593 32.2576 46.1013L35.1438 48.9715C35.9994 49.8289 37.136 50.3443 38.3445 50.4226C39.2024 50.478 40.0098 50.8442 40.6178 51.453L40.6603 51.4956C40.6832 51.5217 40.7075 51.5459 40.7331 51.5688L41.1382 51.9744L41.0934 52.0197C40.3701 52.7444 40.3701 53.9231 41.0934 54.6477L45.2192 58.7809C45.5703 59.1324 46.0368 59.3261 46.5334 59.3261C47.0296 59.3261 47.4966 59.1324 47.8477 58.7809L59.4574 47.1509C60.1807 46.4263 60.1807 45.2476 59.4574 44.5229ZM51.8893 35.7833L51.8728 35.7806L51.7126 35.7481L51.8893 35.7833ZM23.6119 47.7296C23.0584 48.2844 22.3233 48.6176 21.5423 48.6684C20.2574 48.7517 19.0484 49.2997 18.1384 50.2111L17.6198 50.7307L17.1528 50.2628C17.1469 50.2569 17.1409 50.2505 17.135 50.245L8.63432 41.7297L8.90715 41.4564C9.9069 40.4548 10.4576 39.1232 10.4576 37.7064V35.196C10.4576 34.3331 10.7927 33.522 11.402 32.9118L15.4046 28.9027C15.9704 28.3355 16.723 28.0233 17.5232 28.0233C18.0363 28.0233 18.5298 28.1524 18.9674 28.3946L16.7097 30.6559C16.3669 30.9992 16.3673 31.5559 16.7106 31.8987C16.8823 32.07 17.1071 32.1556 17.3318 32.1556C17.557 32.1556 17.7823 32.0695 17.9539 31.8978L20.6506 29.1961V40.1687C20.6506 41.824 21.9955 43.1702 23.6485 43.1702C24.1145 43.1702 24.5558 43.0631 24.9494 42.8727C25.128 43.7438 25.6846 44.4781 26.439 44.8965L23.6119 47.7296ZM37.5842 35.3503C37.5842 36.036 37.0275 36.594 36.3441 36.594C35.6602 36.594 35.104 36.036 35.104 35.3503V25.5464C35.104 25.0611 34.7108 24.6675 34.2251 24.6675C33.7394 24.6675 33.3462 25.0611 33.3462 25.5464V40.1692C33.3462 40.8549 32.79 41.4124 32.1061 41.4124C31.4923 41.4124 30.9828 40.9629 30.8843 40.3747V25.5363C30.8843 25.0506 30.4911 24.6574 30.0054 24.6574C29.8493 24.6574 29.7024 24.6986 29.5751 24.77C29.2973 24.9179 29.1082 25.2099 29.1082 25.5464V40.1687C29.1082 40.2804 29.1146 40.3898 29.1265 40.4983V42.2694C29.1265 42.9551 28.5704 43.5131 27.8865 43.5131C27.203 43.5131 26.6468 42.9551 26.6468 42.2694V25.5258C26.6468 25.0405 26.2532 24.6469 25.7679 24.6469C25.2822 24.6469 24.8886 25.0405 24.8886 25.5258V40.1687C24.8886 40.8544 24.3324 41.4124 23.6489 41.4124C22.965 41.4124 22.4089 40.8544 22.4089 40.1687V23.8197C22.4089 23.334 22.0152 22.9403 21.53 22.9403C21.0443 22.9403 20.6511 23.334 20.6511 23.8197V26.8437C20.5774 26.8675 20.5059 26.9009 20.4396 26.9448C19.3029 26.5177 18.4918 25.4182 18.4918 24.1319V18.4616C18.4918 17.5987 18.8273 16.7875 19.4362 16.1773L21.2082 14.4021C22.2084 13.4006 22.7591 12.0689 22.7591 10.6521V10.2667H24.526C25.0117 10.2667 25.4049 9.87303 25.4049 9.3878C25.4049 8.90212 25.0117 8.5089 24.526 8.5089H20.8657C20.8104 8.5089 20.7655 8.46358 20.7655 8.40819V2.56164C20.7655 2.50625 20.8104 2.46093 20.8657 2.46093H37.283C37.3388 2.46093 37.3837 2.50625 37.3837 2.56164V8.40819C37.3837 8.46404 37.3388 8.5089 37.283 8.5089H28.6523C28.1671 8.5089 27.7734 8.90212 27.7734 9.3878C27.7734 9.87303 28.1671 10.2667 28.6523 10.2667H35.4652V11.0032C35.4652 12.2923 35.9326 13.5351 36.7817 14.5038C37.299 15.0934 37.5842 15.8505 37.5842 16.6356V35.3503ZM58.2132 45.909L46.6035 57.539C46.5842 57.5586 46.5609 57.5683 46.5334 57.5683C46.5064 57.5683 46.4831 57.5586 46.4634 57.539L42.3376 53.4058C42.2977 53.366 42.2977 53.3014 42.3376 53.2616L43.0018 52.596L43.0022 52.5956L49.7419 45.8445L53.9474 41.6317C53.9858 41.5928 54.0485 41.5928 54.087 41.6317L58.2132 45.7648C58.2531 45.8047 58.2531 45.8692 58.2132 45.909Z" fill="#FF5500"/>
<path d="M23.6466 4.54688C23.1307 4.54688 22.7109 4.96756 22.7109 5.48437C22.7109 6.00165 23.1307 6.42187 23.6466 6.42187C24.163 6.42187 24.5827 6.00165 24.5827 5.48437C24.5827 4.96756 24.163 4.54688 23.6466 4.54688Z" fill="#FF5500"/>
<path d="M54.3033 44.6113C53.787 44.6113 53.3672 45.032 53.3672 45.5488C53.3672 46.0656 53.787 46.4863 54.3033 46.4863C54.8192 46.4863 55.239 46.0656 55.239 45.5488C55.239 45.032 54.8192 44.6113 54.3033 44.6113Z" fill="#FF5500"/>
<path d="M14.6452 53.5781C14.6452 53.0613 14.2255 52.6406 13.7096 52.6406C13.1932 52.6406 12.7734 53.0613 12.7734 53.5781C12.7734 54.0949 13.1932 54.5156 13.7096 54.5156C14.2255 54.5156 14.6452 54.0949 14.6452 53.5781Z" fill="#FF5500"/>
</g>
<defs>
<clipPath id="clip0_6183_597">
<rect width="60" height="60" fill="white"/>
</clipPath>
</defs>
</svg>

<svg xmlns="http://www.w3.org/2000/svg" width="60" height="60" fill="none" xmlns:v="https://vecta.io/nano"><g clip-path="url(#A)" fill="#f50"><path d="M24.649 53.19l-.176.861.17-.862a.88.88 0 0 0-1.032.692.88.88 0 0 0 .693 1.032c.072.014.127.019.182.019a.88.88 0 0 0 .164-1.743zm6.721.282l.087.874-.09-.874a.88.88 0 0 0-.784.964.88.88 0 0 0 .873.789 1.03 1.03 0 0 0 .091-.005l.024-.003c.481-.056.822-.49.768-.97s-.489-.826-.97-.776zm-3.363.111c-.497-.022-.902.354-.924.839s.359.895.844.917l.041.001a.88.88 0 0 0 .877-.839.88.88 0 0 0-.838-.918zm-6.603-1.287l-.011-.004c-.457-.164-.955.075-1.119.532s.078.962.535 1.127a.88.88 0 0 0 1.124-.53.88.88 0 0 0-.53-1.124zm13.286.561l.217.852-.219-.851a.88.88 0 0 0 .218 1.73.87.87 0 0 0 .22-.028l.023-.006c.467-.127.739-.607.615-1.074a.88.88 0 0 0-1.074-.623zm3.177-1.108l.348.807-.351-.806a.88.88 0 0 0 .352 1.685.88.88 0 0 0 .35-.073l.022-.01c.441-.199.635-.715.439-1.157a.88.88 0 0 0-1.159-.446zm-19.82-40.066c.141 0 .284-.034.417-.104a.88.88 0 0 0 .362-1.189.88.88 0 0 0-1.189-.362l-.011.005c-.428.228-.585.758-.357 1.187a.88.88 0 0 0 .778.463zM7.881 21.5a.88.88 0 0 0 1.187-.37l.016-.031a.88.88 0 0 0-.401-1.177.88.88 0 0 0-1.172.392.88.88 0 0 0 .371 1.185zm-1.237 3.307c.093.032.188.047.282.047a.88.88 0 0 0 .832-.597l.011-.035a.88.88 0 0 0-.582-1.098.88.88 0 0 0-1.095.571.88.88 0 0 0 .552 1.112zm2.972-6.381a.87.87 0 0 0 .516.168.88.88 0 0 0 .711-.362l.011-.015a.88.88 0 0 0-.204-1.224.88.88 0 0 0-1.226.202l.708.521-.711-.517a.88.88 0 0 0 .194 1.228zm5.447-4.845a.87.87 0 0 0 .529-.179.88.88 0 0 0 .19-1.228.88.88 0 0 0-1.228-.19l-.022.016a.88.88 0 0 0 .531 1.581zM5.859 38.135a.88.88 0 0 0 1.098.58.88.88 0 0 0 .584-1.093.88.88 0 0 0-1.076-.606.88.88 0 0 0-.617 1.079l.011.038zm6.551-22.238a.88.88 0 1 0-.614-1.507l-.015.015a.88.88 0 0 0 .014 1.242c.171.167.393.25.615.25zM6.829 34.305a.88.88 0 0 0-.976-.759.88.88 0 0 0-.769.977l.005.035c.064.437.439.75.868.75a.82.82 0 0 0 .129-.01.88.88 0 0 0 .743-.993zm-1.101-2.518h.027a.88.88 0 0 0 .878-.853l.001-.038a.88.88 0 0 0-.879-.879.88.88 0 0 0-.879.867.88.88 0 0 0 .852.902zm.191-3.525c.053.009.104.014.156.014a.88.88 0 0 0 .864-.724l.006-.039a.88.88 0 0 0-.742-.997.88.88 0 0 0-.996.729.88.88 0 0 0 .711 1.017zm41.462-9.56c.17.247.444.38.723.38.172 0 .346-.05.498-.155a.88.88 0 0 0 .226-1.222l-.731.489.728-.493a.88.88 0 0 0-1.221-.234.88.88 0 0 0-.234 1.221l.011.016zm4.486 8.845a.88.88 0 0 0-.775.972l.005.038a.88.88 0 0 0 .869.754c.041 0 .083-.003.125-.009a.88.88 0 0 0 .747-.983.88.88 0 0 0-.971-.772zm-1.483-2.48l.004.011a.88.88 0 0 0 .843.631c.082 0 .165-.011.248-.036a.88.88 0 0 0 .596-1.091l-.004-.011a.88.88 0 0 0-1.091-.595.88.88 0 0 0-.595 1.091zm-1.241-3.287c.153.312.467.493.793.493a.87.87 0 0 0 .385-.09c.435-.214.616-.738.402-1.174l-.797.371.796-.373a.88.88 0 0 0-1.169-.422.88.88 0 0 0-.423 1.169l.013.026zm-3.977-5.822c.172.176.4.264.628.264.222 0 .444-.083.615-.251a.885.885 0 1 0-1.22-1.282.88.88 0 0 0-.049 1.242l.026.028zm6.985 15.259a.88.88 0 0 0-.904.849.88.88 0 0 0 .829.918l.05.001a.88.88 0 0 0 .877-.83l.001-.036a.88.88 0 0 0-.853-.902zM39.543 11.642l.021.011a.87.87 0 0 0 .41.103.88.88 0 0 0 .417-1.654l-.425.769.422-.771a.88.88 0 0 0-1.193.348.88.88 0 0 0 .348 1.193zm2.973 1.929l.014.011c.159.12.345.178.531.178a.88.88 0 0 0 .532-1.579l-.006-.004a.88.88 0 0 0-1.232.162.88.88 0 0 0 .162 1.233z"/><path d="M59.457 44.523l-4.126-4.133c-.351-.352-.818-.545-1.314-.545s-.963.194-1.314.545l-.096.096-.271-.271a3.55 3.55 0 0 1-.77-1.151.85.85 0 0 0-.063-.163 3.54 3.54 0 0 1-.205-1.194v-1.169a.88.88 0 0 0 .261.089c.05.009.1.013.15.013a.88.88 0 0 0 .863-.721.88.88 0 0 0-.69-1.032c-.209-.042-.416-.005-.59.089a4.95 4.95 0 0 0-1.453-3.305l-4.003-4.01a4.72 4.72 0 0 0-3.363-1.395 4.71 4.71 0 0 0-2.71.85l-.425-.427V16.636a4.99 4.99 0 0 0-1.238-3.291 3.55 3.55 0 0 1-.881-2.341v-.736h.06a1.86 1.86 0 0 0 1.858-1.859V2.562A1.86 1.86 0 0 0 37.283.703H20.866a1.86 1.86 0 0 0-1.858 1.859v5.847a1.86 1.86 0 0 0 1.858 1.859h.136v.385a3.53 3.53 0 0 1-1.037 2.508l-1.772 1.775a4.96 4.96 0 0 0-1.458 3.526v5.67a4.74 4.74 0 0 0 .51 2.142 4.72 4.72 0 0 0-3.084 1.386l-4.003 4.01A4.96 4.96 0 0 0 8.7 35.196v2.51c0 .948-.368 1.838-1.037 2.508l-.268.268-.098-.093c-.351-.352-.818-.545-1.314-.545s-.963.194-1.314.545L.542 44.523c-.723.725-.723 1.904 0 2.629l1.413 1.415a.88.88 0 0 0 1.243.001.88.88 0 0 0 .001-1.243L1.786 45.91c-.04-.04-.04-.104 0-.144l4.126-4.133c.038-.038.101-.039.14 0l.717.719h0l9.795 9.812 1.097 1.099c.04.04.04.104 0 .144l-4.126 4.133c-.039.039-.102.039-.14 0l-7.709-7.722a.88.88 0 0 0-1.243-.001.88.88 0 0 0-.001 1.243l7.709 7.722c.351.351.818.545 1.314.545s.963-.194 1.314-.545l4.126-4.133c.723-.724.723-1.903 0-2.628l-.045-.045.52-.521a3.53 3.53 0 0 1 2.274-1.031 4.97 4.97 0 0 0 3.2-1.451l3.79-3.798a3.01 3.01 0 0 0 2.175-2.293 2.98 2.98 0 0 0 1.284.29c1.653 0 2.998-1.346 2.998-3.001v-2.087a2.98 2.98 0 0 0 1.24.27c1.653 0 2.997-1.346 2.997-3.002v-6.17l2.704 2.717c.172.173.397.259.623.259a.87.87 0 0 0 .62-.256.88.88 0 0 0 .003-1.243l-2.254-2.265c.436-.24.928-.369 1.44-.369.8 0 1.553.312 2.119.879l4.003 4.009a3.21 3.21 0 0 1 .944 2.284v2.51c0 1.417.551 2.748 1.55 3.75l.273.273-1.275 1.277-7.711 7.724-.43-.431-.089-.089a5.29 5.29 0 0 0-3.404-1.543c-.781-.051-1.517-.384-2.073-.941l-2.888-2.872a.88.88 0 0 0-1.243.003.88.88 0 0 0 .004 1.243l2.886 2.87c.856.857 1.992 1.373 3.201 1.451.858.055 1.665.422 2.273 1.03l.042.043a.84.84 0 0 0 .073.073l.405.406-.045.045c-.723.725-.723 1.903 0 2.628l4.126 4.133c.351.351.818.545 1.314.545s.963-.194 1.314-.545l11.61-11.63c.723-.725.723-1.903 0-2.628zm-7.568-8.74l-.017-.003-.16-.032.177.035zM23.612 47.73c-.553.555-1.289.888-2.07.939a5.29 5.29 0 0 0-3.404 1.543l-.519.52-.467-.468-.018-.018-8.501-8.515.273-.273a5.27 5.27 0 0 0 1.55-3.75v-2.51a3.21 3.21 0 0 1 .944-2.284l4.003-4.009c.566-.567 1.318-.879 2.119-.879.513 0 1.007.129 1.444.371l-2.258 2.261a.88.88 0 0 0 .622 1.5c.225 0 .45-.086.622-.258l2.697-2.702v10.973c0 1.655 1.345 3.002 2.998 3.002a2.98 2.98 0 0 0 1.301-.297c.179.871.735 1.605 1.49 2.024l-2.827 2.833zm13.972-12.38c0 .686-.557 1.244-1.24 1.244s-1.24-.558-1.24-1.244v-9.804a.88.88 0 0 0-.879-.879.88.88 0 0 0-.879.879v14.623c0 .686-.556 1.243-1.24 1.243-.614 0-1.123-.45-1.222-1.038V25.536a.88.88 0 1 0-1.776.01v14.622a3 3 0 0 0 .018.33v1.771c0 .686-.556 1.244-1.24 1.244s-1.24-.558-1.24-1.244V25.526a.88.88 0 0 0-.879-.879.88.88 0 0 0-.879.879v14.643c0 .686-.556 1.244-1.24 1.244s-1.24-.558-1.24-1.244V23.82a.88.88 0 0 0-.879-.879.88.88 0 0 0-.879.879v3.024c-.074.024-.145.057-.212.101-1.137-.427-1.948-1.527-1.948-2.813v-5.67a3.21 3.21 0 0 1 .944-2.284l1.772-1.775a5.27 5.27 0 0 0 1.551-3.75v-.385h1.767a.88.88 0 0 0 .879-.879.88.88 0 0 0-.879-.879h-3.66c-.055 0-.1-.045-.1-.101V2.562c0-.055.045-.101.1-.101h16.417c.056 0 .101.045.101.101v5.847a.1.1 0 0 1-.101.101H28.65a.88.88 0 0 0-.879.879.88.88 0 0 0 .879.879h6.813v.736a5.31 5.31 0 0 0 1.316 3.501 3.23 3.23 0 0 1 .803 2.132V35.35zm20.629 10.559l-11.61 11.63c-.019.02-.043.029-.07.029s-.05-.01-.07-.029l-4.126-4.133c-.04-.04-.04-.104 0-.144l.664-.666h0l6.74-6.751 4.206-4.213c.038-.039.101-.039.14 0l4.126 4.133c.04.04.04.104 0 .144zM23.647 4.547a.94.94 0 0 0-.936.937.94.94 0 0 0 .936.938.94.94 0 0 0 .936-.937.94.94 0 0 0-.936-.937zm30.656 40.064a.94.94 0 0 0-.936.938.94.94 0 0 0 .936.938.94.94 0 0 0 .936-.937.94.94 0 0 0-.936-.937zm-39.658 8.967a.94.94 0 0 0-.936-.937.94.94 0 0 0-.936.938.94.94 0 0 0 .936.938.94.94 0 0 0 .936-.937z"/></g><defs><clipPath id="A"><path fill="#fff" d="M0 0h60v60H0z"/></clipPath></defs></svg>
